X:1
T:[ID 11-28b]
T:[ID 11-28b]
T:Bezeichnung standardisiert: Anglaise Nr 8 Angelese
T:Urheber unbekannt Datum in der hier transkribierten schriftlichen Quelle: vermutlich um 1800
C:Urheber unbekannt
C:Datum in der hier transkribierten schriftlichen Quelle: vermutlich um 1800
L:1/8
M:3/8
K:D
V:1 treble 
V:1
 e | eca | aec | d2 f | B2 c | cc e/c/ | ff a/f/ | c(e/c/)(d/B/) | A2 :: B | (BG)e | eBg | geb | %13
 c3 | d2 d | cc^d | ga f/^d/ | e2 :: (A/c/) | e3 | e2 (f/e/) | !/!a3 | (ag).e | !/!f3 | e2 d/B/ | %25
 BB (B/c/) | A2 :| %27

